static/assets/images/shapes/link-green.svg

<svg width="448" height="127" viewBox="0 0 448 127" fill="none" xmlns="http://www.w3.org/2000/svg">
<path d="M194 67.0973C194.119 49.0112 198.849 31.2535 204.75 14.2572C206.179 10.4989 207.644 6.27949 209.158 2.57705C209.459 1.80862 210.174 1.3266 210.945 1.2777C220.587 0.676927 230.251 0.285725 239.907 0.132039C249.557 -0.0286329 259.199 -0.000689958 268.821 0.00629578C269.62 0.00629578 270.313 0.460369 270.65 1.131C286.767 32.7275 289.038 65.5185 277.51 99.0151L275.983 96.9543C279.101 96.9543 282.233 97.0731 285.359 97.3875C294.693 98.2188 303.698 101.474 312.345 104.674L310.734 106.378C309.949 104.485 309.717 102.417 309.921 100.447C310.53 94.6001 314.749 89.0186 320.614 87.6703C328.049 86.0426 335.33 89.3469 342.443 90.9466C342.45 90.9466 384.531 102.145 384.538 102.145C384.685 102.187 384.79 102.305 384.805 102.452L388 127L384.069 102.557C386.655 103.814 341.049 92.232 342.009 92.6511C332.618 90.6881 319.451 84.855 313.768 95.9414C312.24 98.8824 311.827 102.466 313.095 105.372C313.558 106.35 312.485 107.489 311.483 107.077C299.984 102.899 288.33 99.595 276.011 100.112C275.142 100.126 274.42 99.4343 274.406 98.5681C285.072 64.7711 283.095 34.6695 266.999 2.94729L268.828 4.07199C249.592 4.04405 230.419 4.24664 211.225 5.41326L213.033 4.11391C211.232 8.49397 208.772 14.9767 207.083 19.4825C201.365 34.9559 196.53 50.7577 194 67.0973Z" fill="#9BC724"/>
</svg>

<svg xmlns="http://www.w3.org/2000/svg" width="448" height="127" fill="none"><path fill="#9BC724" d="M194 67.097c.119-18.086 4.849-35.843 10.75-52.84 1.429-3.758 2.894-7.978 4.408-11.68a2.06 2.06 0 0 1 1.787-1.3c9.642-.6 19.306-.991 28.962-1.145 9.65-.16 19.292-.133 28.914-.126.799 0 1.492.454 1.829 1.125 16.117 31.597 18.388 64.388 6.86 97.884l-1.527-2.06c3.118 0 6.25.118 9.376.433 9.334.83 18.339 4.086 26.986 7.286l-1.611 1.704c-.785-1.893-1.017-3.961-.813-5.931.609-5.847 4.828-11.428 10.693-12.777 7.435-1.627 14.716 1.677 21.829 3.277.007 0 42.088 11.198 42.095 11.198.147.042.252.16.267.307L388 127l-3.931-24.443c2.586 1.257-43.02-10.325-42.06-9.906-9.391-1.963-22.558-7.796-28.241 3.29-1.528 2.941-1.941 6.525-.673 9.431.463.978-.61 2.117-1.612 1.705-11.499-4.178-23.153-7.482-35.472-6.965a1.577 1.577 0 0 1-1.605-1.544c10.666-33.797 8.689-63.898-7.407-95.62l1.829 1.124c-19.236-.028-38.409.175-57.603 1.341l1.808-1.3c-1.801 4.381-4.261 10.864-5.95 15.37C201.365 34.956 196.53 50.758 194 67.096"/></svg>
